!!!SOCIAL_FUNCTION: snake dance songs
!!!PDT:	1943
!!!LING_GROUP: Muskogean
!!!LANG: Non-Tone
Specific Region: Oklahoma, California, Mississippi, Louisiana, Texas, Alabama
!!!REG: Southeast
!!!COM: Anon.
!!!OTL: Duck Dance Song (b)
!!!ODT: <1933//
!!!MPN: Gus Willis
!!!MLC: Philadelphia, Mississippi, United States of America
!! Song was recorded in January 1933.
!!!AGN: monody
!!!AMT: simple duple
!!!RWG: Transcribed pitches, durations, and meters are only approximate.
**kern	**recip
*ICvox	*ICidio
*Imale	*Isticks
*clefF4	*
*k[f#]	*
*M2/4	*M2/4
*MM132	*MM132
*[A,B,B,C]	*[A,B,B,C]
*>A	*>A
=1-	=1-
8A	12
.	12r
8A	.
.	12
4A	12
.	12r
.	12
=2	=2
4G	12
.	12r
4G	12
.	12r
.	12
=3	=3
4A	12
.	12r
.	12
8G	12
.	12r
8E	.
.	12
=4	=4
4E	12
.	12r
.	12
4E	12
.	12r
.	12
=5	=5
8A	12
.	12r
8A	.
.	12
4A	12
.	12r
.	12
=6	=6
4G	12
.	12r
.	12
4A	12
.	12r
.	12
=7	=7
4A	12
.	12r
.	12
8G	12
.	12r
8E	.
.	12
=8	=8
4D	12
.	12r
.	12
8D	12
.	12r
8r	.
.	12
=9	=9
8A	12
.	12r
8A	.
.	12
4A	12
.	12r
.	12
=10	=10
4G	12
.	12r
.	12
4G	12
.	12r
.	12
=11	=11
4A	12
.	12r
.	12
8G	12
.	12r
8E	.
.	12
=12	=12
4E	12
.	12r
.	12
4E	12
.	12r
.	12
=13	=13
8A	12
.	12r
8A	.
.	12
4A	12
.	12r
.	12
=14	=14
4G	12
.	12r
.	12
4G	12
.	12r
.	12
=15	=15
4A	12
.	12r
.	12
8G	12
.	12r
8E	.
.	12
=16	=16
4D	12
.	12r
.	12
8D	12
.	12r
8r	.
.	12
=17	=17
8B	12
.	12r
8B	.
.	12
4B	12
.	12r
.	12
=18	=18
4A	12
.	12r
.	12
4B	12
.	12r
.	12
=19	=19
4A	12
.	12r
.	12
8G	12
.	12r
8E	.
.	12
=20	=20
4E	12
.	12r
.	12
8E	12
.	12r
8r	.
.	12
=21	=21
8A	12
.	12r
8A	.
.	12
4A	12
.	12r
.	12
=22	=22
4G	12
.	12r
.	12
4G	12
.	12r
.	12
=23	=23
4A	12
.	12r
.	12
8G	12
.	12r
8E	.
.	12
=24	=24
4D	12
.	12r
.	12
8D	12
.	12r
8r	.
.	12
=25	=25
8A	12
.	12r
8A	.
.	12
4A	12
.	12r
.	12
=26	=26
4G	12
.	12r
.	12
4G	12
.	12r
.	12
=27	=27
4A	12
.	12r
.	12
8G	12
.	12r
8E	.
.	12
=28	=28
4E	12
.	12r
.	12
8E	12
.	12r
8r	.
.	12
=29	=29
8A	12
.	12r
8A	.
.	12
4A	12
.	12r
.	12
=30	=30
4G	12
.	12r
.	12
4G	12
.	12r
.	12
=31	=31
4A	12
.	12r
.	12
8G	12
.	12r
8E	.
.	12
=32	=32
4D	12
.	12r
.	12
8D	12
.	12r
8r	.
.	12
=33	=33
8B	12
.	12r
8B	.
.	12
4B	12
.	12r
.	12
=34	=34
4A	12
.	12r
.	12
4B	12
.	12r
.	12
=35	=35
4A	12
.	12r
.	12
8G	12
.	12r
8E	.
.	12
=36	=36
4E	12
.	12r
.	12
8E	12
.	12r
8r	.
.	12
=37	=37
8A	12
.	12r
8A	.
.	12
4A	12
.	12r
.	12
=38	=38
4G	12
.	12r
.	12
4A	12
.	12r
.	12
=39	=39
4A	12
.	12r
.	12
8G	12
.	12r
8E	.
.	12
=40	=40
4D	12
.	12r
.	12
8D	12
.	12r
8r	.
.	12
*>B	*>B
=!|:41	=!|:41
8A	12
.	12r
8A	.
.	12
4A	12
.	12r
.	12
=42	=42
4G	12
.	12r
.	12
4G	12
.	12r
.	12
=43	=43
4a	12
.	12r
.	12
8G	12
.	12r
8E	.
.	12
=44	=44
4E	12
.	12r
.	12
8E	12
.	12r
8r	.
.	12
=45	=45
8A	12
.	12r
8A	.
.	12
4A	12
.	12r
.	12
=46	=46
4G	12
.	12r
.	12
4A	12
.	12r
.	12
=47	=47
4A	12
.	12r
.	12
8G	12
.	12r
8E	.
.	12
=48	=48
4D	12
.	12r
.	12
8D	12
.	12r
8r	.
.	12
=:|!49	=:|!49
*>C	*>C
8B	12
.	12r
8B	.
.	12
4B	12
.	12r
.	12
=50	=50
4A	12
.	12r
.	12
4B	12
.	12r
.	12
=51	=51
4A	12
.	12r
.	12
8G	12
.	12r
8E	.
.	12
=52	=52
4E	12
.	12r
.	12
8E	12
.	12r
8r	.
.	12
=53	=53
8A	12
.	12r
8A	.
.	12
4A	12
.	12r
.	12
=54	=54
4G	12
.	12r
.	12
4G	12
.	12r
.	12
=55	=55
4A	12
.	12r
.	12
8E	12
.	12r
8E	.
.	12
*M3/4	*M3/4
=56	=56
4D	12
.	12r
.	12
4D	12
.	12r
.	12
8D	12
.	12r
8r	.
.	12
==	==
*-	*-
!!!CNT: Choctaw
!!!TXO: Choctaw
!!!OCY: United States
!!!OCL: Frances Densmore
!!!YOR: Frances Densmore, "Choctaw Music"
!!!YOR: Bulletin 136, page 151, No. 30
!!!PPR: Smithsonian Institution, Bureau of American Ethnology
!!!PPR: Government Printing Office
!!!PDT: 1943
!!!PPP: Washington, DC, United States of America
!!!YEC: Electronic Copyright 2000 David Huron
!!!YER: August 2000
!!!YEN: United States of America
!!!ENC: David Huron
!!!RDT: August 28, 2000
!!!EEV: Release 1.0
!!!AIN: sticks, vox
